X: 7375
T: Cliffs, The
R: hornpipe
M: 4/4
K: Amajor
(3DCB,|:A,CEC B,DFD|CEAG AECE|D2 (3Bcd cB (3ABc|(3BcB (3AGF (3EFE (3DCB,|
A,CEC B,DFD|CEAG AECE|D2 (3Bcd cB (3ABc|1 BEGB A2 (3DCB,:|2 BEGB A2 (3efg||
|:aece fece|aece fece|dbfd cB (3ABc|(3BcB (3AGF|
[1 E2 (3efg|aece fece|aece fece|dbfd cB (3ABc|BEGB A2 (3efg:|
[2 (3EFE (3DCB,|A,CEC B,DFD|CEAG AECE|D2 (3Bcd cB (3ABc|BEGB A2||

